X:1
T:Title
%%score { ( 1 3 ) | 2 }
L:1/8
M:6/8
K:Eb
V:1 treble nm="Grand Piano"
V:3 treble 
V:2 bass 
V:1
 z3 z2[Q:1/4=95] E | GGG G[FA][_G=A] | [GB]3 [GB]2 [EG] | [GB][Ge][Gd] [Gc]2 G |[M:5/8] A-A- A3 | %5
[M:1/8] A |[M:3/4] [Ad][Ad] [Ad][Ad] [FA][GB] | [DAc]3 [DAc]2 [B,DF] | GB G=A Bc | B3- [DAB]3 | %10
 [Ge][Ge] [Ge][Ge] [Gd][Gc] | [Ae]2 [Ad] d2 A | e2 d [FAd]2 [DAc] | [Ac][GB] [_G=A] .[=GB]3 | %14
 [Ge][Gd] [Ge][GB] [_G=A][=GB] |[M:7/8] c2 c e3 e |[M:3/4] eB Bd cB |[M:5/8] [Ge]-[Ge]- [Ge]3 |] %18
V:2
 z3 z2 [E,G,] | [E,B,E][E,B,E][E,B,E] [E,B,E][E,B,][E,C] | [E,E]3 [E,E]2 [E,B,] | %3
 [E,E][E,B,][E,B,] [E,E]2 [E,B,E] |[M:5/8] [F,B,D]-[F,B,D]- [F,B,D]3 |[M:1/8] [F,B,D] | %6
[M:3/4] [B,,B,][B,,B,] [B,,B,][B,,B,] [B,,B,][B,,B,] | B,,3 B,,2 B,, | %8
 [E,B,E][E,G,E] [E,B,E][F,E] [F,G,D][F,=A,E] | B,,3 .B,3 | [E,B,][E,B,] [E,B,][E,B,] [E,B,][E,E] | %11
 [F,B,]2 [F,B,][K:treble] [B,FA]2 [B,DF] | [B,FA]2 [B,FA][K:bass] B,,2 B,, | %13
 [E,E][E,E] [E,E] .[E,E]3 | [E,B,][E,B,] [E,B,][E,E] [E,E][E,E] | %15
[M:7/8][K:treble] [A,EA]2 [A,EA] [A,CA]3 [A,CF] |[M:3/4] [B,G][B,EG] [B,EG][B,A] [B,A][B,A] | %17
[M:5/8][K:bass] [E,B,]-[E,B,]- [E,B,]3 |] %18
V:3
 x6 | x6 | x6 | x6 |[M:5/8] x5 |[M:1/8] x |[M:3/4] x6 | x6 | x6 | [B,D]4 z2 | x6 | x6 | x6 | x6 | %14
 x6 |[M:7/8] x7 |[M:3/4] x6 |[M:5/8] x5 |] %18

